Dominus_Funeral/symbolic/status/weather-severe-alert-symbolic.svg

<?xml version="1.0" encoding="UTF-8" standalone="no"?>
<svg
   xmlns:dc="http://purl.org/dc/elements/1.1/"
   xmlns:cc="http://creativecommons.org/ns#"
   xmlns:rdf="http://www.w3.org/1999/02/22-rdf-syntax-ns#"
   xmlns:svg="http://www.w3.org/2000/svg"
   xmlns="http://www.w3.org/2000/svg"
   xmlns:sodipodi="http://sodipodi.sourceforge.net/DTD/sodipodi-0.dtd"
   xmlns:inkscape="http://www.inkscape.org/namespaces/inkscape"
   width="24"
   height="24"
   version="1.1"
   id="svg4"
   sodipodi:docname="weather-severe-alert-symbolic.svg"
   inkscape:version="0.92.4 (5da689c313, 2019-01-14)">
  <metadata
     id="metadata10">
    <rdf:RDF>
      <cc:Work
         rdf:about="">
        <dc:format>image/svg+xml</dc:format>
        <dc:type
           rdf:resource="http://purl.org/dc/dcmitype/StillImage" />
        <dc:title></dc:title>
      </cc:Work>
    </rdf:RDF>
  </metadata>
  <defs
     id="defs8" />
  <sodipodi:namedview
     pagecolor="#ffffff"
     bordercolor="#666666"
     borderopacity="1"
     objecttolerance="10"
     gridtolerance="10"
     guidetolerance="10"
     inkscape:pageopacity="0"
     inkscape:pageshadow="2"
     inkscape:window-width="1366"
     inkscape:window-height="711"
     id="namedview6"
     showgrid="false"
     inkscape:zoom="20.416667"
     inkscape:cx="12"
     inkscape:cy="12"
     inkscape:window-x="0"
     inkscape:window-y="25"
     inkscape:window-maximized="1"
     inkscape:current-layer="svg4" />
  <path
     style="fill:#808080;stroke-width:1.25"
     d="M 12,4.5 A 6.25,6.25 0 0 0 5.75,10.75 6.25,6.25 0 0 0 5.8847656,12.007812 3.75,3.75 0 0 0 5.75,12 3.75,3.75 0 0 0 2,15.75 3.75,3.75 0 0 0 5.75,19.5 H 17 a 5,5 0 0 0 5,-5 A 5,5 0 0 0 18.150391,9.6386719 6.25,6.25 0 0 0 12,4.5 Z M 11.984375,7 h 0.03125 A 0.982,0.982 0 0 1 13,7.984375 v 5.03125 A 0.982,0.982 0 0 1 12.015625,14 h -0.03125 C 11.439375,14 11,13.560625 11,13.015625 V 7.984375 A 0.982,0.982 0 0 1 11.984375,7 Z m 0,8 h 0.03125 A 0.982,0.982 0 0 1 13,15.984375 v 0.03125 A 0.982,0.982 0 0 1 12.015625,17 h -0.03125 C 11.439375,17 11,16.560625 11,16.015625 v -0.03125 A 0.982,0.982 0 0 1 11.984375,15 Z"
     id="path823"
     inkscape:connector-curvature="0" />
</svg>

<?xml version="1.0" encoding="UTF-8" standalone="no"?>
<svg
   xmlns:dc="http://purl.org/dc/elements/1.1/"
   xmlns:cc="http://creativecommons.org/ns#"
   xmlns:rdf="http://www.w3.org/1999/02/22-rdf-syntax-ns#"
   xmlns:svg="http://www.w3.org/2000/svg"
   xmlns="http://www.w3.org/2000/svg"
   xmlns:sodipodi="http://sodipodi.sourceforge.net/DTD/sodipodi-0.dtd"
   xmlns:inkscape="http://www.inkscape.org/namespaces/inkscape"
   width="24"
   height="24"
   version="1.1"
   id="svg4"
   sodipodi:docname="weather-severe-alert-symbolic.svg"
   inkscape:version="0.92.4 (5da689c313, 2019-01-14)">
  <metadata
     id="metadata10">
    <rdf:RDF>
      <cc:Work
         rdf:about="">
        <dc:format>image/svg+xml</dc:format>
        <dc:type
           rdf:resource="http://purl.org/dc/dcmitype/StillImage" />
        <dc:title></dc:title>
      </cc:Work>
    </rdf:RDF>
  </metadata>
  <defs
     id="defs8" />
  <sodipodi:namedview
     pagecolor="#ffffff"
     bordercolor="#666666"
     borderopacity="1"
     objecttolerance="10"
     gridtolerance="10"
     guidetolerance="10"
     inkscape:pageopacity="0"
     inkscape:pageshadow="2"
     inkscape:window-width="1366"
     inkscape:window-height="717"
     id="namedview6"
     showgrid="false"
     inkscape:zoom="21.708333"
     inkscape:cx="12"
     inkscape:cy="12"
     inkscape:window-x="0"
     inkscape:window-y="25"
     inkscape:window-maximized="1"
     inkscape:current-layer="svg4" />
  <path
     style="fill:#808080;stroke-width:1.25"
     d="M 12 4.5 A 6.25 6.25 0 0 0 5.75 10.75 A 6.25 6.25 0 0 0 5.8847656 12.007812 A 3.75 3.75 0 0 0 5.75 12 A 3.75 3.75 0 0 0 2 15.75 A 3.75 3.75 0 0 0 5.75 19.5 L 17 19.5 A 5 5 0 0 0 22 14.5 A 5 5 0 0 0 18.150391 9.6386719 A 6.25 6.25 0 0 0 12 4.5 z M 11.984375 7 L 12.015625 7 A 0.982 0.982 0 0 1 13 7.984375 L 13 13.015625 A 0.982 0.982 0 0 1 12.015625 14 L 11.984375 14 C 11.439375 14 11 13.560625 11 13.015625 L 11 7.984375 A 0.982 0.982 0 0 1 11.984375 7 z M 11.984375 15 L 12.015625 15 A 0.982 0.982 0 0 1 13 15.984375 L 13 16.015625 A 0.982 0.982 0 0 1 12.015625 17 L 11.984375 17 C 11.439375 17 11 16.560625 11 16.015625 L 11 15.984375 A 0.982 0.982 0 0 1 11.984375 15 z "
     id="path823" />
</svg>
